X:1
T:Capriccio 6 C-Dur
T:Capriccio 6 C-Dur
T:G. Gevasini
C:G. Gevasini
L:1/8
Q:1/4=120
M:4/4
K:C
V:1 bass nm="Posaune" snm="Psn."
V:1
"^Preludio :""^Allegro" .C,!<(!.D,/.E,/ .F,/.G,/.A,/.B,/!<)!!>(! (C/B,/C/).B,/ .A,/.G,/!>)!.F,/.E,/ | %1
 .D,!<(!.E,/.F,/ .G,/.A,/.B,/.C/!<)!!>(! (D/^C/D/).=C/ .B,/.A,/!>)!.G,/.F,/ | %2
"^( )" .E,!<(!.F,/.G,/ .A,/.B,/.C/.D/!<)!!>(! (E/^D/E/).=D/ .C/.B,/!>)!.A,/.G,/ | %3
 .F,"_(                                                               )"!<(!.G,/.A,/ .B,/.C/.D/.E/!<)!!>(! (F/E/F/).E/ .D/.C/!>)!.B,/.A,/ | %4
"^( )" .G,!<(!.A,/.B,/ .C/.D/.E/.F/!<)!!>(! (G/^F/G/).=F/ .E/.D/!>)!.C/.B,/ | %5
"^( )" .A,!<(!.B,/.C/ .D/.E/.F/.G/!<)!!>(! (A/^G/A/).=G/ .F/.E/!>)!.D/.C/ | %6
 .B,!<(!.G,/.A,/ .B,/.C/!<)!.D/.E/!>(! (F/D/).B,/.G,/!>)! (F,/D,/).B,,/.G,,/ | %7
 C,!<(!D,/E,/ F,/G,/A,/B,/!<)! C2 z2 |!>(! CB,/A,/ G,/F,/!>)!E,/D,/!<(! C,/E,/G,/C/ EC!<)! | %9
!>(! B,A,/G,/ F,/E,/!>)!D,/C,/ B,,/D,/!<(!G,/B,/ DB,!<)! | %10
 A,!>(!G,/^F,/ E,/D,/!>)!C,/B,,/!<(! A,,/D,/F,/A,/!<)! CA, | %11
!>(! G,^F,/E,/ D,/C,/!>)!!<(!B,,/A,,/ G,,/B,,/D,/G,/!<)! B,G, | %12
 =F,!>(!E,/D,/ C,/B,,/A,,/!>)!G,,/!<(! F,,/G,,/B,,/D,/ G,!<)!F, | %13
!>(! E,D,/C,/ B,,/A,,/!>)!G,,/F,,/!<(! E,,/G,,/C,/E,/ G,E,!<)! | %14
 D,!<(!.G,/.B,/ (D/E/)!<)!(F/E/)!>(! (D/C/).B,/.A,/ (G,/F,/)!>)!.E,/.D,/ | %15
 .C,.E,/.G,/ .C/.G,/.E,/.G,/ C,2 z2 |][M:4/4]!f!"^Esercizio :"[Q:1/4=88]"^Grandioso" C/ | %17
 C4-!>(! C(B,/C/) (E/G/)!>)!!p!.E/.C/ | %18
"^(            )"!f! G,4- G,!>(!(^F,/G,/) (C/E/)!>)!!p!.C/.G,/ | %19
 (E,/^D,/)(F,/E,/) (G,/^F,/)(A,/G,/) (B,/A,/)(C/B,/) (=D/C/)(=F/E/) | ^C3 D/E/ D z z3/2 D/ | %21
!f! D4-!>(! D(^C/D/) (F/G/)!>)!!p!.F/.D/ |!f! B,4- B,!>(!(^A,/B,/) (D/F/).D/!>)!!p!.B,/ | %23
 (G,/^F,/)(A,/G,/) (B,/A,/)(C/B,/)!<(! (D/^C/)(E/D/) (=F/E/)!<)!!mf!(G/F/) | %24
!>(! ^D3 E/F/ E!>)!"^(  )" z z3/2!p! E/ | E4- E(^D/E/ F/E/C/A,/) | %26
 A,2- A,/(^G,/B,/A,/ G,) z/ (G,/ A,/B,/C/D/ | E3) (^D/E/ F/E/D/E/ A/E/C/A,/) | %28
 (A,2- A,/^G,/B,/A,/ G,2) z3/2 =G,/ | G,4-!>(! G,(^F,/G,/ A,/G,/A,/!>)!B,/) | %30
 (!4!D/C/B,/C/) (E/G/)E/C/ G,!<(!C,/D,/ ^D,/E,/F,/^F,/!<)! | %31
 G,4- G,!<(!.^F,/.G,/ .A,/.B,/.C/.D/!<)! |!>(! E3 D .^C!>)!._B,.A,.G, | %33
 (G,F,) A2- A/.G/.F/.E/ .D/.C/.B,/.A,/ | %34
 G,/E,/!<(!^D,/E,/ .G,/.E,/.G,/.C/ E/(G,/^F,/G,/) .C/.G,/.C/.E/!<)! | %35
!>(! .G.F/.E/ .D/.C/.B,/.A,/ .G,/.F,/.E,/!>)!.D,/ .C,/.B,,/.A,,/.G,,/ | %36
 .C,.E,/.G,/ .C/.G,/.E,/.G,/ C,2 z2 |][M:4/4]!f!"^Capriccio :"[Q:1/4=100]"^Allegro maestoso" G,/ | %38
 !>!C7/2 G,/ !>!E7/2 C/ | G z c4 E2 | Gz/C/ Ez/G,/ Cz/E,/ G,z/C,/ | %41
!p! C,2- C,/B,,/D,/C,/ B,,2 z3/2!f! G,/ | !>!B,7/2 G,/ !>!D7/2 B,/ | G z B4 D2 | %44
 Fz/B,/ Dz/G,/ B,z/D,/ F,z/B,,/ |!p! (D,2- D,/C,/E,/D,/ C,2) z3/2 E,/ | %46
 A, z A,,2- (A,,/B,,/C,/D,/ E,/^F,/^G,/A,/) | %47
!<(! (A,/^G,/)(B,/A,/) (C/B,/)(D/!<)!C/)!>(! .B,/.E/.B,/.G,/ .E,/.B,/.G,/.E,/!>)! | %48
 A, z A,,2- (A,,/B,,/C,/D,/ E,/^F,/^G,/A,/) | %49
 (A,/^G,/)!<(!(B,/A,/) (C/B,/)(D/!<)!C/)!>(! .B,/.E/.B,/.G,/ .E,/.B,/!>)!.G,/.E,/ | %50
!p! =G,2 (D,>E, F,2) !>!B,>A, | (^F,G,) !>!C3 (EDC) | (CB, D>)F, (!>!B,>A,) (3(A,G,F,) | %53
 (^D,3 E,/F,/ E,2) z E, | G,2 (D,>E, F,2) (!>!B,>A,) | (^F,G,) E3 (G=FE) | (DA, !>!D3) (FED) | %57
 (CG, !>!C3) (EDC) | (CB,FD B,)(F, B,>A, | G,/).E,/.G,/.C/ !>!E3 (A/G/) (G/F/)(F/E/) | %60
"^( )" .D/.D,/.F,/.A,/"^(   )" !>!D3 (G/F/) (F/E/)(E/D/) | %61
 .C/.C,/.E,/.G,/ !>!C3 (F/E/) (E/D/)(D/C/) | %62
 (B,/A,/).B,/.C/!<(! (D/^C/)(D/E/) (G/F/)(B,/=C/) (E/D/)!<)!(A,/B,/) || %63
[Q:1/4=114]"^Mosso" .C(!>!^D/E/) (B,/C/)(!>!G,/E,/) .C,(!>!D/E/) (!>!B,/C/)(!>!G,/E,/) | %64
 D,(!>!E/F/) (^C/D/)(!>!A,/F,/) (D,/^C,/)!<(!.D,/.E,/ .F,/.G,/.A,/.B,/!<)! | %65
 C(!>!^D/E/) (B,/C/)(!>!G,/E,/) C,(!>!D/E/) (!>!B,/C/)(!>!G,/E,/) | %66
 D,(E/F/) (!>!^C/D/)(!>!A,/F,/) (D,/^C,/).D,/.E,/ .F,/.G,/.A,/.B,/ | %67
 C(D/_E/) (!>!=B,/C/)(!>!G,/_E,/) .C,(!>!D/E/) (!>!B,/E/)(!>!G,/E,/) | %68
 F,(E/F/) (B,/C/)(_A,/F,/) (D,/_E,/).F,/.G,/ .A,/._B,/.C/.D/ | %69
 ._E(^F/G/) (D/E/)(!5!_B,/G,/) _E,(F/G/) (D/E/)(B,/G,/) | %70
 F,(G/A/) (E/F/)(C/_A,/) (F,/E,/)!<(!.F,/.G,/ .A,/._B,/.C/.D/!<)! | %71
 ._E(!>!^F,/G,/) (!>!A,/_B,/)(!>!D/E/) (!>!D/_C/)(!>!C/_A,/) (!>!A,/=F,/)(!>!F,/D,/) | %72
 ._E,(!>!^F,/G,/) (!>!A,/_B,/)(!>!D/_E/) (!>!D/_C/)(!>!C/_A,/) (!>!A,/=F,/)(!>!F,/D,/) | %73
 _E,(D,/!<(!E,/) (^F,/G,/)(_B,/_E/)!<)! (!>!G/F/!>!G/).E/ (!>!B,/A,/!>!B,/).G,/ | %74
 .D,(^C,/!<(!D,/) (^F,/G,/)._B,/.D/!<)! (G/!>(!^F/G/).D/ (B,/A,/B,/)!>)!.G,/ | %75
 (^C,/E,/)(E,/!<(!G,/) (G,/_B,/)(B,/^C/) (E,/G,/)(G,/B,/) (B,/C/)(C/E/) | %76
 (G,/_B,/)(B,/!<)!^C/) (C/E/)(E/G/)!>(! _B2 AG!>)! | %77
 ^F.A/!>(!.F/ .D/.A,/!>)!.^F,/.D,/ (^C,/!<(!E,/)(E,/G,/) (G,/_B,/)(B,/^C/)!<)! | %78
 D .^F,,/!<(!.A,,/ .D,/.^F,/.A,/!<)!.D/!>(! (^C/_B,/)(B,/G,/) (G,/E,/)(E,/!>)!^C,/) | %79
 (D,/^C,/D,/C,/ D,/C,/D,/C,/ D,2) !fermata!z D, |[Q:1/4=100]"^Tempo I""_dolce" (D2 ^C>D B,2) .G,2 | %81
 (^F,2- F,/E,/F,/G,/ A,2) z D, |!<(! (G,2 A,2!<)! B,2!>(! E>D)!>)! | %83
 (!>!^G,2- G,/A,/C/B,/ A,2) z D, | (D2 ^C>D B,2) !>!F2 | %85
 (E2-!>(! E/^D/E/C/)!>)! (3A,!<(!A,B, (3C=D!<)!E | .G,(D,G,B, D!>(!^C=C!>)!A,) | %87
 (A,2- A,/G,/B,/A,/) G,2 z B, | B,2 (^F,>G, A,2 B,2) | (G,3 ^F, E,2) z B, | %90
 B,2 (^F,>G, A,2) (!>!C>B,) | (G,2- G,/^F,/G,/F,/) E,2 z A, | A,2 (E,>^F, G,2 A,2) | %93
 (^F,3 E, D,2) z .A, | A,2 (E,>^F, G,2) (B,>A, | ^F,2)({G,F,)} (^E,F, A,G,B,,=E,) | %96
 (D,2 ^C,>!<(!D, E,2 ^E,2!<)! | ^F,) !>!C2 (B,/A,/ G,) !>!_B,2 (A,/G,/) | %98
 (3(^F,^E,F, (3A,G,=E,) (3(D,^C,D, !>!F,>E,) | D,4 z2 z D, | D2 (^C>D B,2 G,2) | %101
 (^F,2- F,/E,/F,/G,/ A,2) z D, |!<(! (G,2 A,2 B,2!<)!!>(! E>D)!>)! | %103
 (^G,2- G,/A,/C/B,/ (3A,)D,!<(!=E, (3^F,=G,!<)!A, | B,2 (^A,>B, D2) =F2 | %105
!>(! (E2- E/^D/E/!>)!C/ (3A,)!<(!A,B, (3C=DE!<)! | (3.G,.B,,.D, (3.G,.B,.D (3(^FE).B, (3(DC).A, || %107
[Q:1/4=118]"^Piu mosso" .G,.D/.^C/ .=C/.B,/._B,/.A,/ .G,.D/.^C/ .=C/.=B,/.A,/.G,/ |: %108
"^( )"!>(! .^F,"^( )".^F/"^( )".E/ .D/.C/.B,/.A,/ .G,/.F,/.E,/.D,/ .C,/.B,,/!>)!.A,,/.^F,,/ | %109
"^( )" .G,,.D/.^C/ .=C/.B,/._B,/.A,/ .G,.D/.^C/ .=C/.=B,/.A,/.G,/ | %110
 .^F,.^F/!>(!.E/ .D/.C/.B,/.A,/ .G,/.F,/.E,/.D,/ .C,/.B,,/!>)!.A,,/.^F,,/ | %111
 .G,,/.D,/.G,/.D,/ ._B,/.D,/.G,/.D,/ .G,,/.D,/.G,/.D,/ .B,/.G,/.D,/._B,,/ | %112
"^( )" .A,,._E/.D/ .C/._B,/!>(!.A,/.G,/ .F,/._E,/.D,/.C,/ ._B,,/.A,,/.G,,/!>)!.A,,/ | %113
 ._B,,/.F,/._B,/.F,/ .D/.F,/.B,/.F,/ .B,,/.F,/.B,/.F,/ .D/.B,/.F,/.D,/ | %114
 .^C,.G/.F/ .=E/.D/!>(!.^C/._B,/ .A,/.G,/.F,/.E,/!>)! .D,/.C,/.=B,,/.C,/ | %115
 .D,/"_cresc.".F,/.A,/.F,/ .D/.A,/.F,/.D,/ .C,/.F,/.A,/.F,/ .C/.A,/.F,/.C,/ | %116
 ._B,,/.D,/.F,/.D,/ ._B,/.F,/.D,/.B,,/ .A,,/.D,/.^F,/.D,/ .A,/.F,/.D,/.A,,/ | %117
 .G,,/.D,/.G,/._B,/ .A,,/.D,/.^F,/.C/ ._B,,/.D,/.G,/.D/ ._E,/.G,/.B,/.^C/ | %118
 .D!>(!.G/.^F/ .E/.D/.C/.B,/ .A,/.G,/.^F,/!>)!.E,/ .D,/.C,/.B,,/.A,,/ |1 %119
 .G,,.D/.^C/ .=C/.B,/._B,/.A,/"^( )" .G,"^( )".D/"^( )".^C/"^( )" .=C/"^( )".=B,/"^( )".A,/"^( )".G,/ :|2 %120
 .G,,/.D,/.G,/.B,/!<(! .^G,/.E,/.G,/.B,/!<)! .A,/.E,/.A,/!>(!(C/ B,/).A,/.^F,/!>)!.D,/ || %121
 .G,/.D,/!<(!.G,/.B,/ .^G,/.E,/.G,/.B,/!<)! .A,/!>(!.E,/.A,/.C/!>)!!<(! (D/C/).A,/!<)!.^F,/ | %122
 .G,/.D,/.G,/.B,/!<(! (D/C/).A,/.^F,/!<)! .G,/.D,/!>(!.G,/.B,/ .D/.C/!>)!.A,/.F,/ | %123
 .G,/!<(!.G/.D/.B,/ .G,/.D/!<)!.B,/.G,/!>(! .D,/.B,/.G,/.D,/ .B,,/.G,/.D,/!>)!.B,,/ | %124
O G,,4 !fermata!z2 z3/2 G,/ |!f![Q:1/4=100]"^Tempo I" !>!C7/2 G,/ !>!E7/2 C/ | %126
 G4- G(^F/G/ A/G/).E/.C/ | %127
 (!>!F/E/C/).G,/ (!>!D/C/G,/).E,/ (!>!A,/G,/E,/).C,/"^(   )" (!>!F,/E,/D,/).C,/ | %128
 (C,2- C,/!>(!B,,/D,/C,/) B,,2 z3/2!>)! G,/ | !>!B,7/2 G,/"^(   )" !>!D7/2 B,/ | %130
 F4-!>(! F(E/F/!>)!!<(! G/F/).D/!<)!.B,/ | %131
 (!>!E/D/B,/).G,/ (!>!C/B,/G,/).F,/ (!>!A,/G,/F,/).D,/ (!>!G,/F,/D,/).B,,/ | %132
 (D,2- D,/C,/E,/D,/) C,2 z3/2 E/ | E z !>!E,2- E,!<(!(^D,/E,/ ^G,/B,/C/=D/)!<)! | %134
 (D/!>(!C/)(C/B,/) (B,/A,/)(A,/^G,/)!>)! A,2 z3/2 D/ | %135
 D"^(  )" z z !>!D,2- D,(^C,/D,/!<(! ^F,/A,/D/=C/)!<)! | %136
!>(! (C/B,/)(B,/A,/) (A,/G,/)(G,/!>)!^F,/) G,2 z3/2 G,/ |"^dolce" G,2 (D,>E, F,2 !>!B,>A,) | %138
 (^F,G,) !>!C3 (EDC) | (CB,D)F, !>!B,>A, (3(A,G,F,) | (^D,3 E,/F,/ E,2) z3/2 G,/ | %141
 (G,2 D,>E, F,) !>!B,2 A, | (^F,G,) G3 (.=F/.E/) (D/C/).B,/.A,/ | %143
 !>!G,/.C/.G,/.E,/ C,/G,/E,/C,/ (B,,/C,/).D,/.E,/!<(! .F,/.G,/.A,/.B,/!<)! |: %144
"^( )"[Q:1/4=114]"^Mosso" .C.G,,/.C,/!<(! .E,/.G,/.C/.E/!<)!"^( )" .G.C,/!<(!.E,/ .G,/.C/.E/.G/!<)! | %145
 .F.A/!>(!.G/ .F/.E/.D/.C/ .B,/.A,/.G,/.F,/!>)! .E,/.D,/.C,/.B,,/ | %146
"_( )" .C,"_( )".G,,/"^( )"!<(!.C,/"^( )" .E,/"^( )".G,/"^( )".C/"^( )".E/!<)!"^( )" .G"^( )"!<(!.C,/"^( )".E,/"^( )" .G,/"^( )".C/"^( )".E/"^( )".G/!<)! | %147
"^( )" .F!>(!.A/.G/ .F/.E/.D/.C/ .B,/.A,/.G,/.F,/!>)! .E,/.D,/.C,/.B,,/ | %148
 .C,.G,,/!<(!.C,/ .E,/.G,/.C/.E/!<)!!>(! .G/.F/.E/.D/"^( )" .^C/"^( )"._B,/!>)!"^( )".A,/"^( )".G,/ | %149
"^( )" .F,.A,,/.D,/!<(! .F,/.A,/.D/.F/!<)!!>(! .A/.G/.^F/.E/ .^D/.C/!>)!.B,/.A,/ | %150
 .G,.B,,/.E,/!<(! .G,/.B,/.E/.G/!<)! (!>!G/.F/)(E/F/) (!>!^C/D/).A,/.F,/ | %151
 (!>!F/E/)(^D/E/) (!>!B,/C/).G,/.E,/ (E/!<(!=D/)(^C/D/) (C/D/)(E/!<)!F/) | %152
 (A/G/^F/G/ E/).C/.G,/.E,/ (G/=F/E/F/ D/).A,/.F,/.D,/ | %153
 (F/E/^D/E/ C/).G,/.E,/.C,/ .B,,/.C,/!<(!.=D,/.E,/ .F,/.G,/.A,/.B,/!<)! | %154
 (!>!C/_E/)(E/A,/) (!>!A,/C/)(C/^F,/) (!>!F,/A,/)(A,/_E,/) (!>!E,/F,/)(F,/C,/) | %155
 .G,,.A,,/.B,,/ .C,/.D,/.E,/!<(!.F,/ .G,/.A,/.B,/.C/ .D/.E/.F/.G/!<)! :| %156
 (C/E/).D/.C/ (B,/D/).C/.B,/ (A,/C/).B,/.A,/ (G,/_B,/).A,/.G,/ | %157
 (F,/A,/).G,/.F,/ (^F,/A,/).G,/.F,/ (G,/A,/)!<(!.B,/.C/ .D/.E/.=F/.D/!<)! | %158
 .C/(E,/G,/).C/ .B,/(D,/E,/).^G,/ .A,/(A,,/C,/).A,/ =G,/(_B,,/C,/).E,/ | %159
 .F,/(A,,/C,/).F,/ (^F,/_E,/).C,/.A,,/ .G,,/!<(!.A,,/.B,,/.C,/ .D,/.=E,/.=F,/.G,/!<)! | %160
!<(! (C,/E,/).G,/.C/!<)!!>(! (B,/G,/).F,/!>)!.D,/ (C,/!<(!E,/).G,/.C/!<)!!>(! (B,/G,/).F,/!>)!.D,/ | %161
 .C,/.G,,/.C,/.E,/ .G,/!<(!.C,/.E,/.G,/ .C/.E,/.G,/.C/ .E/.G,/.C/.E/!<)! | %162
!fff! G/c/G/E/ C/G/E/C/ G,/E/C/G,/ E,/C/G,/E,/ | C,z/G,,/!<(! E,z/C,/ G,z/C/ G,z/!<)!E,/ | %164
!>(! C,6"^26. 6. 1972\n1\n""^1\n Hierbei handelt es sich um das Datum der Fertigstellung des zugrundeliegenden Manuskripts, das selbst wiederum eine Abschrift ist.\n" z2!>)! |] %165

